admin/src/assets/images/logo-won.svg

<svg width="158" height="48" viewBox="0 0 158 48" fill="none" xmlns="http://www.w3.org/2000/svg">
<path d="M0.0547602 15.1246L0.0192849 35.7696C0.0110436 40.5656 5.35471 43.4324 9.34604 40.7731L29.9416 27.0514L50.4899 40.8438C54.4721 43.5168 59.8255 40.6684 59.8338 35.8723L59.8681 15.8752C59.8817 7.99357 52.3194 2.30981 44.7523 4.51426L43.8791 4.76865C34.2791 7.56535 24.0679 7.47109 14.5211 4.49764C7.35072 2.26432 0.0676653 7.61443 0.0547602 15.1246Z" fill="url(#paint0_linear)"/>
<path d="M30.1635 27.0569L24.13 22.7648C23.7654 22.5055 23.2697 22.8189 23.3478 23.2595L24.6409 30.5568L30.1635 27.0569Z" fill="#110F28" fill-opacity="0.15"/>
<path d="M7.59186 7.00005C2.48169 9.75488 3.07342 12 3.07343 14.5" stroke="white" stroke-opacity="0.4" stroke-width="1.5" stroke-linecap="round"/>
<path d="M57.2743 26.0004L57.2743 27.0004" stroke="white" stroke-opacity="0.4" stroke-width="1.5" stroke-linecap="round"/>
<path d="M3.05249 18V20" stroke="white" stroke-opacity="0.4" stroke-width="1.5" stroke-linecap="round"/>
<path d="M57.2744 30.0004L57.2744 35.0004" stroke="white" stroke-opacity="0.4" stroke-width="1.5" stroke-linecap="round"/>
<path d="M13.0526 15L13.0527 21" stroke="#0A0D27" stroke-width="2" stroke-linecap="round"/>
<path d="M10.0403 18L16.0649 18.0001" stroke="#0A0D27" stroke-width="2" stroke-linecap="round"/>
<ellipse rx="1.50616" ry="1.5" transform="matrix(1 7.0266e-06 7.05545e-06 1 44.723 13.557)" fill="#0A0D27"/>
<ellipse rx="1.50616" ry="1.5" transform="matrix(1 7.0266e-06 7.05545e-06 1 49.7435 17.5004)" fill="#0A0D27"/>
<ellipse rx="1.50616" ry="1.5" transform="matrix(1 7.0266e-06 7.05545e-06 1 44.723 21.5003)" fill="#0A0D27"/>
<ellipse rx="1.50616" ry="1.5" transform="matrix(1 7.0266e-06 7.05545e-06 1 39.7025 17.5003)" fill="#0A0D27"/>
<path d="M79.2628 12.53C79.2428 12.53 79.2228 12.53 79.2028 12.53C78.5228 12.63 78.0028 12.97 77.6428 13.55C77.4228 13.93 77.3128 14.33 77.3128 14.75C77.3128 14.85 77.3228 14.95 77.3428 15.05V15.08L78.7228 24.41C78.8028 24.95 79.0628 25.4 79.5028 25.76C79.9228 26.08 80.3928 26.24 80.9128 26.24C81.0328 26.24 81.1528 26.23 81.2728 26.21C81.9328 26.11 82.4428 25.79 82.8028 25.25C83.0628 24.89 83.1928 24.48 83.1928 24.02C83.1928 23.94 83.1828 23.85 83.1628 23.75L81.7828 14.42C81.7028 13.86 81.4428 13.39 81.0028 13.01C80.5828 12.67 80.1028 12.5 79.5628 12.5C79.4628 12.5 79.3628 12.51 79.2628 12.53ZM98.0428 12.5C97.5028 12.5 97.0228 12.68 96.6028 13.04C96.1628 13.4 95.9028 13.86 95.8228 14.42L94.4128 23.93C94.3928 24.01 94.3828 24.08 94.3828 24.14C94.3828 24.66 94.5528 25.12 94.8928 25.52C95.2528 25.98 95.7328 26.25 96.3328 26.33C96.4328 26.35 96.5428 26.36 96.6628 26.36C97.3228 26.36 97.8728 26.12 98.3128 25.64C98.6128 25.32 98.8028 24.94 98.8828 24.5V24.47V24.44L100.263 15.08V15.05C100.283 14.95 100.293 14.85 100.293 14.75C100.293 14.33 100.173 13.93 99.9328 13.55C99.5728 12.97 99.0628 12.63 98.4028 12.53C98.3628 12.53 98.3428 12.53 98.3428 12.53C98.2428 12.51 98.1428 12.5 98.0428 12.5ZM88.8028 20.54C88.7828 20.54 88.7628 20.54 88.7428 20.54C88.6628 20.54 88.5828 20.55 88.5028 20.57C88.1428 20.61 87.8128 20.73 87.5128 20.93C87.3528 21.03 87.2128 21.15 87.0928 21.29C87.0128 21.37 86.8828 21.51 86.7028 21.71L84.5128 24.41C84.3328 24.61 84.0928 24.89 83.7928 25.25C83.5128 25.59 83.2828 25.84 83.1028 26C82.7228 26.34 82.3528 26.58 81.9928 26.72C81.7928 26.8 81.5828 26.86 81.3628 26.9C81.2228 26.92 81.0728 26.93 80.9128 26.93C80.5328 26.93 80.1728 26.86 79.8328 26.72C79.5128 26.6 79.2328 26.43 78.9928 26.21L79.7428 31.34V31.4C79.7628 31.44 79.7728 31.49 79.7728 31.55C79.8128 31.73 79.8628 31.9 79.9228 32.06C80.0628 32.36 80.2728 32.62 80.5528 32.84C80.7328 33 80.9328 33.12 81.1528 33.2C81.3928 33.28 81.6428 33.32 81.9028 33.32C81.9428 33.32 81.9728 33.32 81.9928 33.32C82.1528 33.32 82.2928 33.31 82.4128 33.29C82.8728 33.19 83.2628 32.97 83.5828 32.63C83.6628 32.55 83.7628 32.45 83.8828 32.33L88.7728 26.3L93.5128 32.12C93.7528 32.4 93.9028 32.57 93.9628 32.63C94.3428 33.01 94.7928 33.24 95.3128 33.32C95.4128 33.32 95.5228 33.32 95.6428 33.32C95.9228 33.32 96.1928 33.27 96.4528 33.17C96.8728 32.99 97.2228 32.71 97.5028 32.33C97.6828 32.05 97.8028 31.74 97.8628 31.4V31.34L98.6128 26.33C98.2728 26.63 97.8828 26.83 97.4428 26.93C97.1828 27.01 96.9228 27.05 96.6628 27.05C96.5228 27.05 96.3728 27.04 96.2128 27.02C95.9328 26.98 95.6628 26.9 95.4028 26.78C95.1428 26.66 94.8128 26.41 94.4128 26.03C94.1528 25.77 93.8228 25.38 93.4228 24.86L90.9028 21.8C90.7628 21.62 90.6228 21.46 90.4828 21.32C90.2828 21.12 90.0928 20.97 89.9128 20.87C89.6128 20.67 89.2728 20.56 88.8928 20.54C88.8528 20.54 88.8228 20.54 88.8028 20.54ZM108.609 20.84C108.889 20.58 109.209 20.38 109.569 20.24C109.909 20.1 110.259 20.03 110.619 20.03C111.079 20.03 111.519 20.14 111.939 20.36C112.419 20.6 112.809 20.94 113.109 21.38C113.469 20.1 114.179 19.05 115.239 18.23C116.299 17.41 117.499 17 118.839 17C120.499 17 121.909 17.59 123.069 18.77C124.229 19.93 124.809 21.34 124.809 23C124.809 24.66 124.229 26.08 123.069 27.26C121.909 28.42 120.499 29 118.839 29C117.499 29 116.289 28.6 115.209 27.8C114.149 26.98 113.439 25.92 113.079 24.62C112.859 24.96 112.579 25.25 112.239 25.49C111.739 25.79 111.199 25.94 110.619 25.94C110.199 25.94 109.789 25.86 109.389 25.7C109.089 25.56 108.829 25.38 108.609 25.16C109.109 27.58 110.319 29.58 112.239 31.16C114.159 32.72 116.359 33.5 118.839 33.5C120.739 33.5 122.489 33.03 124.089 32.09C125.709 31.15 126.979 29.88 127.899 28.28C128.839 26.66 129.309 24.9 129.309 23C129.309 21.1 128.839 19.35 127.899 17.75C126.979 16.13 125.709 14.85 124.089 13.91C122.489 12.97 120.739 12.5 118.839 12.5C116.379 12.5 114.189 13.29 112.269 14.87C110.349 16.43 109.129 18.42 108.609 20.84ZM110.619 20.75C109.959 20.75 109.409 20.99 108.969 21.47C108.729 21.71 108.559 22 108.459 22.34C108.399 22.56 108.369 22.79 108.369 23.03C108.369 23.25 108.399 23.46 108.459 23.66C108.539 23.94 108.669 24.19 108.849 24.41C109.289 24.97 109.879 25.25 110.619 25.25C111.339 25.25 111.919 24.98 112.359 24.44C112.579 24.18 112.729 23.9 112.809 23.6C112.849 23.4 112.869 23.2 112.869 23C112.869 22.82 112.849 22.65 112.809 22.49C112.729 22.11 112.569 21.78 112.329 21.5C111.869 21 111.299 20.75 110.619 20.75ZM140.268 12.5C139.668 12.5 139.148 12.71 138.708 13.13C138.248 13.57 138.018 14.11 138.018 14.75V20.9C138.258 20.62 138.548 20.4 138.888 20.24C139.308 20.04 139.758 19.94 140.238 19.94H140.298C140.758 19.94 141.198 20.04 141.618 20.24C141.958 20.4 142.258 20.62 142.518 20.9C142.578 20.96 142.628 21.02 142.668 21.08L152.478 32.63C152.918 33.21 153.508 33.5 154.248 33.5C154.908 33.5 155.468 33.25 155.928 32.75C156.308 32.33 156.498 31.83 156.498 31.25V31.22V25.13C156.238 25.39 155.938 25.6 155.598 25.76C155.178 25.96 154.728 26.06 154.248 26.06C153.688 26.06 153.168 25.93 152.688 25.67C152.348 25.47 152.058 25.22 151.818 24.92L141.948 13.25C141.728 13.01 141.468 12.82 141.168 12.68C140.888 12.56 140.588 12.5 140.268 12.5ZM154.248 12.5C153.628 12.5 153.108 12.71 152.688 13.13C152.228 13.57 151.998 14.11 151.998 14.75V23.45C151.998 23.87 152.138 24.25 152.418 24.59C152.858 25.15 153.468 25.43 154.248 25.43C154.788 25.43 155.268 25.28 155.688 24.98C156.208 24.58 156.478 24.07 156.498 23.45V14.75C156.478 14.05 156.208 13.48 155.688 13.04C155.268 12.68 154.788 12.5 154.248 12.5ZM140.238 20.57C139.638 20.57 139.128 20.76 138.708 21.14C138.268 21.54 138.038 22.02 138.018 22.58V31.19V31.25C138.018 31.75 138.168 32.2 138.468 32.6C138.928 33.2 139.528 33.5 140.268 33.5C140.908 33.5 141.448 33.27 141.888 32.81C142.308 32.39 142.518 31.87 142.518 31.25V31.22V22.58C142.498 21.78 142.108 21.19 141.348 20.81C141.028 20.65 140.678 20.57 140.298 20.57H140.238Z" fill="#FAFAFA"/>
<defs>
<linearGradient id="paint0_linear" x1="29.1592" y1="-7.4998" x2="30.1547" y2="49.0004" gradientUnits="userSpaceOnUse">
<stop stop-color="#FF725F"/>
<stop offset="1" stop-color="#F062C0"/>
<stop offset="1" stop-color="#F231A5"/>
</linearGradient>
</defs>
</svg>

<svg width="158" height="48" fill="none" xmlns="http://www.w3.org/2000/svg"><path d="M.055 15.125L.019 35.77c-.008 4.796 5.336 7.662 9.327 5.003l20.596-13.722L50.49 40.844c3.982 2.673 9.335-.176 9.344-4.972l.034-19.997c.014-7.881-7.549-13.565-15.116-11.36l-.873.254a50.874 50.874 0 01-29.358-.271C7.351 2.264.068 7.614.055 15.125z" fill="url(#paint0_linear)"/><path d="M30.163 27.057l-6.033-4.292a.5.5 0 00-.782.494l1.293 7.298 5.523-3.5z" fill="#110F28" fill-opacity=".15"/><path d="M7.592 7c-5.11 2.755-4.519 5-4.519 7.5M57.274 26v1M3.052 18v2M57.274 30v5" stroke="#fff" stroke-opacity=".4" stroke-width="1.5" stroke-linecap="round"/><path d="M13.053 15v6M10.04 18h6.025" stroke="#0A0D27" stroke-width="2" stroke-linecap="round"/><ellipse rx="1.506" ry="1.5" transform="matrix(1 0 0 1 44.723 13.557)" fill="#0A0D27"/><ellipse rx="1.506" ry="1.5" transform="matrix(1 0 0 1 49.743 17.5)" fill="#0A0D27"/><ellipse rx="1.506" ry="1.5" transform="matrix(1 0 0 1 44.723 21.5)" fill="#0A0D27"/><ellipse rx="1.506" ry="1.5" transform="matrix(1 0 0 1 39.703 17.5)" fill="#0A0D27"/><path d="M79.263 12.53h-.06c-.68.1-1.2.44-1.56 1.02-.22.38-.33.78-.33 1.2 0 .1.01.2.03.3v.03l1.38 9.33c.08.54.34.99.78 1.35a2.27 2.27 0 001.77.45c.66-.1 1.17-.42 1.53-.96.26-.36.39-.77.39-1.23 0-.08-.01-.17-.03-.27l-1.38-9.33c-.08-.56-.34-1.03-.78-1.41-.42-.34-.9-.51-1.44-.51-.1 0-.2.01-.3.03zm18.78-.03c-.54 0-1.02.18-1.44.54-.44.36-.7.82-.78 1.38l-1.41 9.51c-.02.08-.03.15-.03.21 0 .52.17.98.51 1.38.36.46.84.73 1.44.81.1.02.21.03.33.03.66 0 1.21-.24 1.65-.72.3-.32.49-.7.57-1.14v-.06l1.38-9.36v-.03c.02-.1.03-.2.03-.3 0-.42-.12-.82-.36-1.2-.36-.58-.87-.92-1.53-1.02h-.06c-.1-.02-.2-.03-.3-.03zm-9.24 8.04h-.06c-.08 0-.16.01-.24.03-.36.04-.69.16-.99.36-.16.1-.3.22-.42.36-.08.08-.21.22-.39.42l-2.19 2.7c-.18.2-.42.48-.72.84-.28.34-.51.59-.69.75-.38.34-.75.58-1.11.72-.2.08-.41.14-.63.18-.14.02-.29.03-.45.03-.38 0-.74-.07-1.08-.21-.32-.12-.6-.29-.84-.51l.75 5.13v.06c.02.04.03.09.03.15.04.18.09.35.15.51.14.3.35.56.63.78.18.16.38.28.6.36.24.08.49.12.75.12h.09c.16 0 .3-.01.42-.03.46-.1.85-.32 1.17-.66l.3-.3 4.89-6.03 4.74 5.82c.24.28.39.45.45.51.38.38.83.61 1.35.69h.33c.28 0 .55-.05.81-.15.42-.18.77-.46 1.05-.84.18-.28.3-.59.36-.93v-.06l.75-5.01c-.34.3-.73.5-1.17.6-.26.08-.52.12-.78.12a2.903 2.903 0 01-1.26-.27c-.26-.12-.59-.37-.99-.75-.26-.26-.59-.65-.99-1.17l-2.52-3.06c-.14-.18-.28-.34-.42-.48-.2-.2-.39-.35-.57-.45-.3-.2-.64-.31-1.02-.33h-.09zm19.806.3c.28-.26.6-.46.96-.6.34-.14.69-.21 1.05-.21.46 0 .9.11 1.32.33.48.24.87.58 1.17 1.02a5.912 5.912 0 012.13-3.15 5.73 5.73 0 013.6-1.23c1.66 0 3.07.59 4.23 1.77 1.16 1.16 1.74 2.57 1.74 4.23 0 1.66-.58 3.08-1.74 4.26-1.16 1.16-2.57 1.74-4.23 1.74-1.34 0-2.55-.4-3.63-1.2a5.913 5.913 0 01-2.13-3.18c-.22.34-.5.63-.84.87-.5.3-1.04.45-1.62.45-.42 0-.83-.08-1.23-.24-.3-.14-.56-.32-.78-.54.5 2.42 1.71 4.42 3.63 6 1.92 1.56 4.12 2.34 6.6 2.34 1.9 0 3.65-.47 5.25-1.41 1.62-.94 2.89-2.21 3.81-3.81.94-1.62 1.41-3.38 1.41-5.28 0-1.9-.47-3.65-1.41-5.25-.92-1.62-2.19-2.9-3.81-3.84-1.6-.94-3.35-1.41-5.25-1.41-2.46 0-4.65.79-6.57 2.37-1.92 1.56-3.14 3.55-3.66 5.97zm2.01-.09c-.66 0-1.21.24-1.65.72-.24.24-.41.53-.51.87-.06.22-.09.45-.09.69 0 .22.03.43.09.63.08.28.21.53.39.75.44.56 1.03.84 1.77.84.72 0 1.3-.27 1.74-.81.22-.26.37-.54.45-.84.04-.2.06-.4.06-.6 0-.18-.02-.35-.06-.51-.08-.38-.24-.71-.48-.99a2.23 2.23 0 00-1.71-.75zm29.649-8.25c-.6 0-1.12.21-1.56.63-.46.44-.69.98-.69 1.62v6.15c.24-.28.53-.5.87-.66.42-.2.87-.3 1.35-.3h.06c.46 0 .9.1 1.32.3a2.909 2.909 0 011.05.84l9.81 11.55c.44.58 1.03.87 1.77.87.66 0 1.22-.25 1.68-.75.38-.42.57-.92.57-1.5v-6.12c-.26.26-.56.47-.9.63-.42.2-.87.3-1.35.3-.56 0-1.08-.13-1.56-.39-.34-.2-.63-.45-.87-.75l-9.87-11.67c-.22-.24-.48-.43-.78-.57a2.26 2.26 0 00-.9-.18zm13.98 0c-.62 0-1.14.21-1.56.63-.46.44-.69.98-.69 1.62v8.7c0 .42.14.8.42 1.14.44.56 1.05.84 1.83.84.54 0 1.02-.15 1.44-.45.52-.4.79-.91.81-1.53v-8.7c-.02-.7-.29-1.27-.81-1.71-.42-.36-.9-.54-1.44-.54zm-14.01 8.07c-.6 0-1.11.19-1.53.57-.44.4-.67.88-.69 1.44v8.67c0 .5.15.95.45 1.35.46.6 1.06.9 1.8.9.64 0 1.18-.23 1.62-.69.42-.42.63-.94.63-1.56v-8.67c-.02-.8-.41-1.39-1.17-1.77-.32-.16-.67-.24-1.05-.24h-.06z" fill="#FAFAFA"/><defs><linearGradient id="paint0_linear" x1="29.159" y1="-7.5" x2="30.155" y2="49" gradientUnits="userSpaceOnUse"><stop stop-color="#FF725F"/><stop offset="1" stop-color="#F062C0"/><stop offset="1" stop-color="#F231A5"/></linearGradient></defs></svg>
